svgs/solid/box-heart.svg

<svg xmlns="http://www.w3.org/2000/svg" viewBox="0 0 448 512"><!--! Font Awesome Pro 6.2.0 by @fontawesome - https://fontawesome.com License - https://fontawesome.com/license (Commercial License) Copyright 2022 Fonticons, Inc. --><path d="M93.7 32H208V160H0L50.7 58.5C58.9 42.3 75.5 32 93.7 32zM240 32H354.3c18.2 0 34.8 10.3 42.9 26.5L448 160H240V32zM0 192H448V416c0 35.3-28.7 64-64 64H64c-35.3 0-64-28.7-64-64V192zM212.7 420.7c6.2 6.2 16.4 6.2 22.6 0l77.3-77.3c20.5-20.5 20.5-53.8 0-74.3s-53.8-20.5-74.3 0L224 283.4l-14.3-14.3c-20.5-20.5-53.8-20.5-74.3 0s-20.5 53.8 0 74.3l77.3 77.3z"/></svg>

<svg xmlns="http://www.w3.org/2000/svg" viewBox="0 0 448 512"><!--! Font Awesome Pro 6.1.2 by @fontawesome - https://fontawesome.com License - https://fontawesome.com/license (Commercial License) Copyright 2022 Fonticons, Inc. --><path d="M208 32V160H0L50.73 58.53C58.86 42.27 75.48 32 93.67 32H208zM354.3 32C372.5 32 389.1 42.27 397.3 58.53L448 160H240V32H354.3zM0 192H448V416C448 451.3 419.3 480 384 480H64C28.65 480 0 451.3 0 416V192zM235.3 420.7L312.6 343.4C333.1 322.9 333.1 289.7 312.6 269.1C292.1 248.6 258.8 248.6 238.3 269.1L224 283.4L209.7 269.1C189.2 248.6 155.9 248.6 135.4 269.1C114.9 289.7 114.9 322.9 135.4 343.4L212.7 420.7C218.9 426.9 229.1 426.9 235.3 420.7V420.7z"/></svg>
